src/components/Modal/assets/powered-by-onfido.svg

<?xml version="1.0" encoding="UTF-8" standalone="no"?>
<svg width="112px" height="24px" viewBox="0 0 112 24" version="1.1" xmlns="http://www.w3.org/2000/svg" xmlns:xlink="http://www.w3.org/1999/xlink">
    <!-- Generator: Sketch 46.1 (44463) - http://www.bohemiancoding.com/sketch -->
    <title>powered-by-onfido</title>
    <desc>Created with Sketch.</desc>
    <defs></defs>
    <g id="Symbols" stroke="none" stroke-width="1" fill="none" fill-rule="evenodd" opacity="0.5">
        <g id="powered-by-onfido" fill="#8A9293">
            <g>
                <path d="M72.6,14.91 C73.6275221,14.9718215 74.6045832,14.4587528 75.137026,13.5777713 C75.6694687,12.6967898 75.6694687,11.5932102 75.137026,10.7122287 C74.6045832,9.83124724 73.6275221,9.31817845 72.6,9.38 C71.5724779,9.31817845 70.5954168,9.83124724 70.062974,10.7122287 C69.5305313,11.5932102 69.5305313,12.6967898 70.062974,13.5777713 C70.5954168,14.4587528 71.5724779,14.9718215 72.6,14.91 Z M87.93,9.49 L85.36,9.49 L85.36,9 C85.36,8.33 85.54,7.73 86.36,7.73 L87,7.73 L87,6.61 L86.39,6.61 C85.7490321,6.54741579 85.1150052,6.78382827 84.6714908,7.25078833 C84.2279764,7.71774839 84.0245094,8.36310265 84.12,9 L84.12,9.49 L83.12,9.49 L83.12,10.49 L84.12,10.49 L84.12,14.8 L85.36,14.8 L85.36,10.46 L87.93,10.46 L87.93,14.8 L89.15,14.8 L89.15,9.49 L87.93,9.49 Z M72.64,13.82 C72.2016429,13.8254881 71.7797763,13.6530832 71.4707304,13.3421529 C71.1616844,13.0312225 70.9918473,12.6083157 71,12.17 C71,11.2366388 71.7566388,10.48 72.69,10.48 C73.6233612,10.48 74.38,11.2366388 74.38,12.17 C74.3888699,12.6190619 74.210907,13.0516513 73.888606,13.3644729 C73.566305,13.6772945 73.1285972,13.8422678 72.68,13.82 L72.64,13.82 Z M78.1,12 C78.0655149,11.612057 78.2054374,11.2288851 78.4818008,10.9544543 C78.7581642,10.6800235 79.1423085,10.5427934 79.53,10.58 C80.25,10.58 80.7,11.06 80.7,11.9 L80.7,14.9 L81.93,14.9 L81.93,11.75 C81.93,10.25 81.15,9.42 79.8,9.42 C79.1113323,9.40865215 78.4652814,9.75245705 78.09,10.33 L78.09,9.53 L76.87,9.53 L76.87,14.84 L78.1,14.84 L78.1,12 Z M87.72,7.18 C87.7303408,7.38696612 87.822614,7.58131053 87.9764559,7.72014346 C88.1302978,7.85897638 88.3330618,7.93088506 88.54,7.92 C88.9486907,7.92 89.28,7.58869071 89.28,7.18 C89.28,6.77130929 88.9486907,6.44 88.54,6.44 C88.3330618,6.42911494 88.1302978,6.50102362 87.9764559,6.63985654 C87.822614,6.77868947 87.7303408,6.97303388 87.72,7.18 L87.72,7.18 Z M95.19,14.81 L96.41,14.81 L96.41,6.61 L95.19,6.61 L95.19,10.26 C94.7503806,9.66569108 94.0373668,9.33747835 93.3,9.39 C92.5570049,9.36478543 91.8367024,9.64817963 91.3100767,10.1729109 C90.7834511,10.6976423 90.497463,11.4169188 90.52,12.16 C90.503209,12.9005154 90.7913772,13.6154105 91.3170226,14.1372743 C91.8426681,14.6591382 92.5596251,14.9421372 93.3,14.92 C94.0444673,14.9499209 94.7542997,14.604394 95.19,14 L95.19,14.77 L95.19,14.81 Z M95.19,12.14 C95.1899999,13.0733612 94.4333612,13.8299999 93.5,13.8299999 C92.5666388,13.8299999 91.8100001,13.0733612 91.81,12.14 C91.8039139,11.7006104 91.9799426,11.2782939 92.2962988,10.9733037 C92.612655,10.6683136 93.041127,10.5078481 93.48,10.53 C93.9225375,10.508227 94.3548704,10.6675432 94.6774607,10.9712685 C95.0000509,11.2749938 95.1850988,11.6969543 95.19,12.14 L95.19,12.14 Z M103.62,12.14 C103.677165,10.9488048 103.004206,9.84255354 101.920108,9.34561625 C100.836011,8.84867897 99.5586642,9.06093319 98.6935386,9.88176911 C97.828413,10.702605 97.5493868,11.9670459 97.9887201,13.0757389 C98.4280534,14.1844319 99.4974464,14.914545 100.69,14.92 C101.454469,14.9672086 102.204179,14.6946219 102.759806,14.1674399 C103.315434,13.640258 103.627006,12.9058937 103.62,12.14 L103.62,12.14 Z M63.05,9.49 C62.2380799,8.61250771 61.0954862,8.11557015 59.9,8.12 C58.8134796,8.09317068 57.7609607,8.49990049 56.9748232,9.25038978 C56.1886856,10.0008791 55.7335849,11.0334043 55.71,12.12 C55.8191311,14.3518588 57.6604747,16.1053662 59.895,16.1053662 C62.1295253,16.1053662 63.9708689,14.3518588 64.08,12.12 C64.08,12.05 64.08,12.02 64.08,12.02 C64.0815326,11.9487973 64.1101401,11.8808544 64.16,11.83 L65.5,10.56 C65.5095379,10.5381232 65.5311344,10.5239792 65.555,10.5239792 C65.5788656,10.5239792 65.6004621,10.5381232 65.61,10.56 L65.61,10.71 C65.7313383,11.1667139 65.791861,11.6374462 65.79,12.11 C65.65954,15.2822183 63.0498998,17.7867409 59.875,17.7867409 C56.7001002,17.7867409 54.09046,15.2822183 53.96,12.11 C54.0017525,10.5741431 54.6543258,9.11836284 55.7730949,8.06529331 C56.8918639,7.01222377 58.3844277,6.44883975 59.92,6.5 C61.561079,6.48485167 63.1367362,7.14258014 64.28,8.32 L65.77,6.9 C65.8331277,6.84406429 65.9157863,6.81531347 66,6.82 L67.82,6.82 C68.07,6.82 68.13,6.96 67.95,7.13 L60,14.61 C59.9088958,14.6914861 59.7711042,14.6914861 59.68,14.61 L57.45,12.61 C57.403149,12.5611715 57.3748489,12.4974961 57.37,12.43 L57.37,10.69 C57.37,10.45 57.51,10.39 57.69,10.56 L59.76,12.42 C59.8055521,12.460743 59.8744479,12.460743 59.92,12.42 L63,9.49 L63.05,9.49 Z M100.67,13.78 C100.226497,13.7937751 99.7967555,13.6250331 99.4811159,13.3131736 C99.1654763,13.0013141 98.9915691,12.5736369 99,12.13 C99.0000001,11.1966388 99.7566388,10.4400001 100.69,10.4400001 C101.623361,10.4400001 102.38,11.1966388 102.38,12.13 C102.38887,12.5790619 102.210907,13.0116513 101.888606,13.3244729 C101.566305,13.6372945 101.128597,13.8022678 100.68,13.78 L100.67,13.78 Z" id="Onfido-logo" fill-rule="nonzero"></path>
                <text id="powered-by" font-family="OpenSans, Open Sans" font-size="7.77" font-weight="normal">
                    <tspan x="8" y="13.99">powered by</tspan>
                </text>
                <path d="M108,1 C109.656854,1 111,2.34314575 111,4 L111,20 C111,21.6568542 109.656854,23 108,23 L4,23 C2.34314575,23 1,21.6568542 1,20 L1,4 C1,2.34314575 2.34314575,1 4,1 L108,1 L108,1 Z M108,0 L4,0 C1.790861,8.67738547e-17 2.705415e-16,1.790861 0,4 L0,20 C2.705415e-16,22.209139 1.790861,24 4,24 L108,24 C110.209139,24 112,22.209139 112,20 L112,4 C112,1.790861 110.209139,3.57315355e-16 108,0 Z" id="Shape" fill-rule="nonzero"></path>
            </g>
        </g>
    </g>
</svg>

<svg width="112" height="24" viewBox="0 0 112 24" xmlns="http://www.w3.org/2000/svg">
  <title>
    powered-by-onfido
  </title>
  <g fill="#8A9293" fill-rule="evenodd" opacity=".5">
    <path d="M72.6 14.91c1.028.062 2.005-.45 2.537-1.332.532-.88.532-1.985 0-2.866-.532-.88-1.51-1.394-2.537-1.332-1.028-.062-2.005.45-2.537 1.332-.532.88-.532 1.985 0 2.866.532.88 1.51 1.394 2.537 1.332zm15.33-5.42h-2.57V9c0-.67.18-1.27 1-1.27H87V6.61h-.61c-.64-.063-1.275.174-1.72.64-.442.468-.645 1.113-.55 1.75v.49h-1v1h1v4.31h1.24v-4.34h2.57v4.34h1.22V9.49h-1.22zm-15.29 4.33c-.438.005-.86-.167-1.17-.478-.308-.31-.478-.734-.47-1.172 0-.933.757-1.69 1.69-1.69.933 0 1.69.757 1.69 1.69.01.45-.17.882-.49 1.194-.324.313-.76.478-1.21.456h-.04zM78.1 12c-.034-.388.105-.77.382-1.046.276-.274.66-.41 1.048-.374.72 0 1.17.48 1.17 1.32v3h1.23v-3.15c0-1.5-.78-2.33-2.13-2.33-.69-.01-1.335.332-1.71.91v-.8h-1.22v5.31h1.23V12zm9.62-4.82c.01.207.103.4.256.54.154.14.357.21.564.2.41 0 .74-.33.74-.74s-.33-.74-.74-.74c-.207-.01-.41.06-.564.2-.153.14-.246.333-.256.54zm7.47 7.63h1.22v-8.2h-1.22v3.65c-.44-.594-1.153-.923-1.89-.87-.743-.025-1.463.258-1.99.783-.527.525-.813 1.244-.79 1.987-.017.74.27 1.455.797 1.977.526.522 1.243.805 1.983.783.744.03 1.454-.316 1.89-.92v.81zm0-2.67c0 .933-.757 1.69-1.69 1.69-.933 0-1.69-.757-1.69-1.69-.006-.44.17-.862.486-1.167.317-.305.745-.465 1.184-.443.443-.022.875.138 1.197.44.323.305.508.727.513 1.17zm8.43 0c.057-1.19-.616-2.297-1.7-2.794-1.084-.497-2.36-.285-3.226.536-.866.82-1.145 2.085-.705 3.194.438 1.108 1.507 1.84 2.7 1.844.764.047 1.514-.225 2.07-.753.555-.527.867-1.26.86-2.027zM63.05 9.49c-.812-.877-1.955-1.374-3.15-1.37-1.087-.027-2.14.38-2.925 1.13-.786.75-1.24 1.783-1.265 2.87.11 2.232 1.95 3.985 4.185 3.985 2.235 0 4.076-1.753 4.185-3.985v-.1c.002-.07.03-.14.08-.19l1.34-1.27c.01-.022.03-.036.055-.036.024 0 .045.014.055.036v.15c.12.457.182.927.18 1.4-.13 3.172-2.74 5.677-5.915 5.677s-5.785-2.505-5.915-5.677c.042-1.536.694-2.992 1.813-4.045 1.12-1.053 2.61-1.616 4.147-1.565 1.64-.015 3.217.643 4.36 1.82l1.49-1.42c.063-.056.146-.085.23-.08h1.82c.25 0 .31.14.13.31L60 14.61c-.09.08-.23.08-.32 0l-2.23-2c-.047-.05-.075-.113-.08-.18v-1.74c0-.24.14-.3.32-.13l2.07 1.86c.046.04.114.04.16 0L63 9.49h.05zm37.62 4.29c-.444.014-.873-.155-1.19-.467-.315-.312-.488-.74-.48-1.183 0-.933.757-1.69 1.69-1.69.933 0 1.69.757 1.69 1.69.01.45-.17.882-.49 1.194-.324.313-.76.478-1.21.456h-.01z" fill-rule="nonzero"/>
    <text font-family="OpenSans, Open Sans" font-size="7.77">
      <tspan x="8" y="13.99">powered by</tspan>
    </text>
    <path d="M108 1c1.657 0 3 1.343 3 3v16c0 1.657-1.343 3-3 3H4c-1.657 0-3-1.343-3-3V4c0-1.657 1.343-3 3-3h104zm0-1H4C1.79 0 0 1.79 0 4v16c0 2.21 1.79 4 4 4h104c2.21 0 4-1.79 4-4V4c0-2.21-1.79-4-4-4z" fill-rule="nonzero"/>
  </g>
</svg>
